X:1
T:SAILOR’S HORNPIPE
L:1/8
M:4/4
I:linebreak $
K:G
V:1 treble nm="Fiddle" snm="Fiddle"
V:1
 gf |: g2 G2 G2 dc | Bdgf gbag | a2 A2 A2 AG | FA d2 d2 ef |$ gfed edcB | cBAG AGFE | DGFA GBAc |1 %8
 B2 G2 G2 gf :|2 B2 G2 G2 dc |:$ Bdgd Bdgd | e2 c2 c2 ed | ^ceae ceae | f2 d2 d2 ef |$ gfed edcB | %15
 cBAG AGFE | DGFA GBAc |1 B2 G2 G2 dc :|2 B2 G2 G2 gf |] %19
